src/normal/download.svg

<!-- Generated by IcoMoon.io -->
<svg version="1.1" xmlns="http://www.w3.org/2000/svg" width="24" height="24" viewBox="0 0 24 24">
<title>download</title>
<path d="M15 11v-11h-5v11h-3.953l6.363 6.364 6.363-6.364zM20.16 7h-3.16v2h3.16c0.551 0 0.84 0.016 0.84 0.566v7.5c0 0.828-0.514 1.934-1.34 1.934h-15.318c-0.826 0-1.34-1.106-1.34-1.934v-7.5c0-0.55 0.289-0.566 0.84-0.566h3.16v-2h-3.16c-1.654 0-2.84 0.912-2.84 2.566v11c0 1.654 1.186 3.434 2.84 3.434h16.318c1.654 0 2.84-1.779 2.84-3.434v-11c0-1.654-1.186-2.566-2.84-2.566zM21 20.566c0 0.551-0.289 1.434-0.84 1.434h-16.318c-0.551 0-0.84-0.883-0.84-1.434v-1.513c0 0.317 0.775 0.946 1.34 0.946h15.318c0.564 0 1.34-0.629 1.34-0.946v1.513z"></path>
</svg>

<svg xmlns="http://www.w3.org/2000/svg" width="24" height="24"><path d="M15 11V0h-5v11H6.047l6.363 6.364L18.773 11zm5.16-4H17v2h3.16c.551 0 .84.016.84.566v7.5c0 .828-.514 1.934-1.34 1.934H4.342c-.826 0-1.34-1.106-1.34-1.934v-7.5c0-.55.289-.566.84-.566h3.16V7h-3.16c-1.654 0-2.84.912-2.84 2.566v11C1.002 22.22 2.188 24 3.842 24H20.16c1.654 0 2.84-1.779 2.84-3.434v-11C23 7.912 21.814 7 20.16 7zM21 20.566c0 .551-.289 1.434-.84 1.434H3.842c-.551 0-.84-.883-.84-1.434v-1.513c0 .317.775.946 1.34.946H19.66c.564 0 1.34-.629 1.34-.946v1.513z"/></svg>
